static/images/settings_button_foto.svg

<svg width="22" height="22" viewBox="0 0 22 22" fill="none" xmlns="http://www.w3.org/2000/svg">
<path fill-rule="evenodd" clip-rule="evenodd" d="M4 1.5H18C19.3807 1.5 20.5 2.61929 20.5 4V14L14.5194 12.4052C13.5108 12.1362 12.4714 12 11.4275 12H10.5725C9.52864 12 8.48921 12.1362 7.48057 12.4052L1.5 14V4C1.5 2.61929 2.61929 1.5 4 1.5ZM0 4C0 1.79086 1.79086 0 4 0H18C20.2091 0 22 1.79086 22 4V18C22 20.2091 20.2091 22 18 22H4C1.79086 22 0 20.2091 0 18V4ZM8 6C8 7.10457 7.10457 8 6 8C4.89543 8 4 7.10457 4 6C4 4.89543 4.89543 4 6 4C7.10457 4 8 4.89543 8 6Z" fill="#3369F3"/>
</svg>

<svg width="22" height="22" fill="none" xmlns="http://www.w3.org/2000/svg"><path fill-rule="evenodd" clip-rule="evenodd" d="M4 1.5h14A2.5 2.5 0 0 1 20.5 4v10l-5.98-1.595A11.998 11.998 0 0 0 11.427 12h-.856c-1.043 0-2.083.136-3.091.405L1.5 14V4A2.5 2.5 0 0 1 4 1.5ZM0 4a4 4 0 0 1 4-4h14a4 4 0 0 1 4 4v14a4 4 0 0 1-4 4H4a4 4 0 0 1-4-4V4Zm8 2a2 2 0 1 1-4 0 2 2 0 0 1 4 0Z" fill="#3369F3"/></svg>
